icons/stolen.svg

<?xml version="1.0" encoding="UTF-8"?>
<!-- Generated by Pixelmator Pro 2.4.7 -->
<svg width="5386" height="838" viewBox="0 0 5386 838" xmlns="http://www.w3.org/2000/svg" xmlns:xlink="http://www.w3.org/1999/xlink">
    <path id="path854" fill="#ffffff" fill-rule="evenodd" stroke="#1b1918" stroke-width="0.216" stroke-linecap="round" stroke-linejoin="round" d="M 4339.147461 837.888489 C 4390.882813 837.888489 4434.934082 824.675964 4470.172363 803.750183 L 4470.172363 698.064575 C 4434.934082 720.090271 4395.311523 732.202881 4358.958984 732.202881 C 4264.286133 732.202881 4193.824219 658.441589 4193.824219 554.926697 C 4193.824219 452.555176 4263.186035 378.779266 4358.958984 378.779266 C 4395.311523 378.779266 4434.934082 391.991791 4470.172363 412.917664 L 4470.172363 307.232117 C 4434.934082 287.420593 4390.882813 273.093811 4339.147461 273.093811 C 4187.210938 273.093811 4076.025879 393.106079 4076.025879 554.926697 C 4076.025879 716.790771 4187.210938 837.888489 4339.147461 837.888489 Z M 2391.569336 99.131592 L 2274.856689 99.131592 L 2274.856689 670.539795 L 2391.569336 670.539795 Z M 2724.067139 721.175598 L 2274.856689 721.175598 L 2274.856689 825.775757 L 2724.067139 825.775757 Z M 3063.149414 273.093811 C 3019.098145 273.093811 2978.375244 284.106567 2946.451172 301.718506 L 2946.451172 416.231567 C 2977.275391 395.29129 3017.998291 379.879181 3062.064209 379.879181 C 3160.036377 379.879181 3231.583496 453.640472 3231.583496 558.240662 L 3231.583496 777.325195 C 3302.059814 733.288269 3350.510498 652.913452 3350.510498 557.140869 C 3350.510498 396.405579 3222.784912 273.093811 3063.149414 273.093811 Z M 2895.800781 333.657074 C 2825.324463 377.69397 2777.988037 458.068787 2777.988037 554.926697 C 2777.988037 715.690857 2905.713867 837.888489 3064.249268 837.888489 C 3109.371582 837.888489 3149.023438 826.875671 3180.947754 809.263794 L 3180.947754 695.850464 C 3150.123291 715.690857 3110.48584 731.103088 3066.43457 731.103088 C 2968.462402 731.103088 2895.800781 657.341675 2895.800781 552.741455 Z M 3713.818115 837.888489 C 3740.243164 837.888489 3763.339844 833.489197 3783.180176 823.576172 L 3783.180176 715.690857 C 3763.339844 724.489563 3739.128906 731.103088 3714.917969 731.103088 C 3645.541504 731.103088 3592.720459 683.766663 3592.720459 607.791199 L 3592.720459 285.206421 L 3477.107422 285.206421 L 3477.107422 598.978088 C 3477.107422 745.401001 3579.479004 837.888489 3713.818115 837.888489 Z M 3832.716309 801.53595 C 3902.063721 769.611755 3948.314697 696.964783 3948.314697 598.978088 L 3948.314697 285.206421 L 3832.716309 285.206421 Z M 4520.808105 825.775757 L 4637.506836 825.775757 L 4637.506836 0.059509 L 4520.808105 0.059509 Z"/>
    <path id="path856" fill="#e30016" fill-rule="evenodd" stroke="#1b1918" stroke-width="0.216" stroke-linecap="round" stroke-linejoin="round" d="M 1548.12561 593.464355 L 1900.420654 593.464355 C 1903.734497 579.166565 1909.248291 550.54187 1909.248291 520.817383 C 1909.248291 378.779266 1803.562622 273.093811 1659.310303 273.093811 C 1501.889038 273.093811 1379.691528 397.505463 1379.691528 556.02655 C 1379.691528 715.690857 1503.003296 837.888489 1670.32312 837.888489 C 1756.226074 837.888489 1828.873291 804.864502 1886.122803 750.914551 L 1831.087524 671.639587 C 1785.936157 711.262573 1736.38562 735.502502 1673.637085 735.502502 C 1567.937134 735.502502 1494.175659 667.240295 1494.175659 553.84137 C 1494.175659 444.841766 1563.552246 371.080475 1654.939941 371.080475 C 1729.801147 371.080475 1792.5354 419.531067 1793.635254 503.190979 L 1548.12561 503.190979 Z"/>
    <path id="path858" fill="#c7002e" fill-rule="evenodd" stroke="#1b1918" stroke-width="0.216" stroke-linecap="round" stroke-linejoin="round" d="M 2079.018555 659.374756 C 2028.015747 659.374756 1989.759888 697.630554 1989.759888 748.633362 C 1989.759888 797.509155 2028.015747 837.891968 2079.018555 837.891968 C 2127.894287 837.891968 2166.150146 797.509155 2166.150146 748.633362 C 2166.150146 697.630554 2127.894287 659.374756 2079.018555 659.374756 Z"/>
    <path id="path860" fill="#e30016" fill-rule="evenodd" stroke="#1b1918" stroke-width="0.216" stroke-linecap="round" stroke-linejoin="round" d="M 5152.412598 837.884583 L 5035.711426 837.884583 L 5035.711426 345.187073 L 5152.412598 345.187073 Z"/>
    <path id="path862" fill="#e30016" fill-rule="evenodd" stroke="#1b1918" stroke-width="0.216" stroke-linecap="round" stroke-linejoin="round" d="M 4918.917969 837.884583 L 4802.217285 837.884583 L 4802.217285 116.188782 L 4918.917969 116.188782 Z"/>
    <path id="path1" fill="#ffffff" fill-rule="evenodd" stroke="none" d="M 467 838 L 584 838 L 584 116 L 467 116 Z"/>
    <path id="path864" fill="#e30016" fill-rule="evenodd" stroke="#1b1918" stroke-width="0.216" stroke-linecap="round" stroke-linejoin="round" d="M 5385.935059 837.884583 L 5269.233887 837.884583 L 5269.233887 417.278168 L 5385.935059 417.278168 Z"/>
    <path id="path866" fill="#ffffff" fill-rule="evenodd" stroke="#1b1918" stroke-width="0.216" stroke-linecap="round" stroke-linejoin="round" d="M 233.630707 837.884583 L 350.331696 837.884583 L 350.331696 345.187073 L 233.630707 345.187073 Z"/>
    <path id="M" fill="#e30016" fill-rule="evenodd" stroke="none" d="M 1323.085571 840.665344 L 1323.085571 116 L 1117.384521 116 L 993.871033 610.314697 L 871.750549 116 L 665.585144 116 L 665.585144 840.665344 L 793.27771 840.665344 L 793.27771 270.226196 L 928.399597 840.665344 L 1060.735474 840.665344 L 1195.393066 270.226196 L 1195.393066 840.665344 Z"/>
    <path id="path870" fill="#ffffff" fill-rule="evenodd" stroke="#1b1918" stroke-width="0.216" stroke-linecap="round" stroke-linejoin="round" d="M 0.108 837.884583 L 116.808998 837.884583 L 116.808998 417.278168 L 0.108 417.278168 Z"/>
    <path id="path872" fill="#ffffff" fill-rule="evenodd" stroke="#1b1918" stroke-width="0.216" stroke-linecap="round" stroke-linejoin="round" d="M 3060.383789 486.432373 C 3017.501709 486.432373 2985.329834 518.604248 2985.329834 561.486389 C 2985.329834 602.578796 3017.501709 636.540283 3060.383789 636.540283 C 3101.462402 636.540283 3133.648193 602.578796 3133.648193 561.486389 C 3133.648193 518.604248 3101.462402 486.432373 3060.383789 486.432373 Z"/>
</svg>

<svg role="img" width="5386.043" height="838.04852" viewBox="0 0 5386.043 838.04852" xmlns="http://www.w3.org/2000/svg" xmlns:svg="http://www.w3.org/2000/svg">
                    <defs id="defs878"></defs>
                    <path d="m 4339.1473,837.937 c 51.7357,0 95.787,-13.2125 131.0252,-34.1383 V 698.1131 c -35.2382,22.0257 -74.8612,34.1383 -111.2137,34.1383 -94.6727,0 -165.1346,-73.7613 -165.1346,-177.2762 0,-102.3715 69.362,-176.1474 165.1346,-176.1474 36.3525,0 75.9755,13.2125 111.2137,34.1384 V 307.2806 c -35.2382,-19.8115 -79.2895,-34.1383 -131.0252,-34.1383 -151.9366,0 -263.1213,120.0123 -263.1213,281.8329 0,161.8641 111.1847,282.9618 263.1213,282.9618 z M 2391.5694,99.1801 h -116.7128 v 571.4082 h 116.7128 z m 332.4978,622.044 h -449.2106 v 104.6002 h 449.2106 z m 339.0823,-448.0818 c -44.0513,0 -84.7742,11.0128 -116.6984,28.6247 v 114.5131 c 30.8244,-20.9403 71.5472,-36.3524 115.613,-36.3524 97.9723,0 169.5195,73.7613 169.5195,178.3615 v 219.0845 c 70.4763,-44.0369 118.927,-124.4117 118.927,-220.1843 0,-160.7353 -127.7257,-284.0471 -287.3611,-284.0471 z m -167.3487,60.5633 c -70.4763,44.0369 -117.8127,124.4117 -117.8127,221.2696 0,160.7642 127.7257,282.9618 286.2612,282.9618 45.1222,0 84.7742,-11.0128 116.6984,-28.6247 V 695.899 c -30.8243,19.8404 -70.4618,35.2526 -114.5132,35.2526 -97.9722,0 -170.6337,-73.7614 -170.6337,-178.3616 z m 818.0174,504.2314 c 26.425,0 49.5216,-4.3993 69.362,-14.3123 V 715.7394 c -19.8404,8.7987 -44.0513,15.4122 -68.2622,15.4122 -69.3765,0 -122.1975,-47.3364 -122.1975,-123.3119 V 285.2549 h -115.613 v 313.7717 c 0,146.4229 102.3715,238.9104 236.7107,238.9104 z m 118.898,-36.3525 c 69.3476,-31.9242 115.5986,-104.5712 115.5986,-202.5579 V 285.2549 h -115.5986 z m 688.0921,24.2398 h 116.6984 V 0.108 h -116.6984 z" style="fill:#ffffff;fill-rule:evenodd;stroke:#1b1918;stroke-width:0.216;stroke-linecap:butt;stroke-linejoin:miter;stroke-dasharray:none" id="path854"></path>
                    <path d="m 1223.7608,825.8243 h 133.2104 l -184.9606,-253.2227 -117.8127,23.1255 z m 324.3648,-232.3114 h 352.2948 c 3.3139,-14.2978 8.8276,-42.9225 8.8276,-72.647 0,-142.0381 -105.6856,-247.7236 -249.9377,-247.7236 -157.4213,0 -279.6188,124.4117 -279.6188,282.9328 0,159.6643 123.3118,281.8619 290.6316,281.8619 85.903,0 158.55,-33.024 215.7994,-86.9739 l -55.0352,-79.275 c -45.1512,39.623 -94.7017,63.8629 -157.4502,63.8629 -105.7,0 -179.4614,-68.2622 -179.4614,-181.6611 0,-108.9996 69.3765,-182.7609 160.7642,-182.7609 74.8612,0 137.5952,48.4506 138.6951,132.1105 H 1548.1256 Z M 766.8658,825.8243 H 883.5642 V 202.6949 h 147.5372 c 82.56,0 127.6967,50.6359 127.6967,119.9979 0,68.2477 -45.1367,118.898 -127.6967,118.898 h -96.8869 v 103.4859 h 97.9867 c 147.5227,0 246.6093,-92.473 246.6093,-223.4982 0,-132.0961 -99.0866,-222.3984 -246.6093,-222.3984 H 766.8658 Z" style="fill:#e30016;fill-rule:evenodd;stroke:#1b1918;stroke-width:0.216;stroke-linecap:butt;stroke-linejoin:miter;stroke-dasharray:none" id="path856"></path>
                    <path d="m 2079.0185,659.4233 c -51.0028,0 -89.2586,38.2558 -89.2586,89.2586 0,48.8758 38.2558,89.2586 89.2586,89.2586 48.8758,0 87.1316,-40.3828 87.1316,-89.2586 0,-51.0028 -38.2558,-89.2586 -87.1316,-89.2586 z" style="fill:#c7002e;fill-rule:evenodd;stroke:#1b1918;stroke-width:0.216;stroke-linecap:butt;stroke-linejoin:miter;stroke-dasharray:none" id="path858"></path>
                    <path d="m 5152.4124,837.9331 h -116.701 V 345.2356 h 116.701 z" style="fill:#e30016;fill-rule:evenodd;stroke:#1b1918;stroke-width:0.216;stroke-linecap:butt;stroke-linejoin:miter;stroke-dasharray:none" id="path860"></path>
                    <path d="m 4918.9181,837.9331 h -116.701 V 116.2373 h 116.701 z" style="fill:#e30016;fill-rule:evenodd;stroke:#1b1918;stroke-width:0.216;stroke-linecap:butt;stroke-linejoin:miter;stroke-dasharray:none" id="path862"></path>
                    <path d="m 5385.9351,837.9331 h -116.701 V 417.3267 h 116.701 z" style="fill:#e30016;fill-rule:evenodd;stroke:#1b1918;stroke-width:0.216;stroke-linecap:butt;stroke-linejoin:miter;stroke-dasharray:none" id="path864"></path>
                    <path d="m 233.6307,837.9331 h 116.701 V 345.2356 h -116.701 z" style="fill:#ffffff;fill-rule:evenodd;stroke:#1b1918;stroke-width:0.216;stroke-linecap:butt;stroke-linejoin:miter;stroke-dasharray:none" id="path866"></path>
                    <path d="m 467.1249,837.9331 h 116.701 V 116.2373 h -116.701 z" style="fill:#ffffff;fill-rule:evenodd;stroke:#1b1918;stroke-width:0.216;stroke-linecap:butt;stroke-linejoin:miter;stroke-dasharray:none" id="path868"></path>
                    <path d="M 0.108,837.9331 H 116.809 V 417.3267 H 0.108 Z" style="fill:#ffffff;fill-rule:evenodd;stroke:#1b1918;stroke-width:0.216;stroke-linecap:butt;stroke-linejoin:miter;stroke-dasharray:none" id="path870"></path>
                    <path d="m 3060.3839,486.4809 c -42.8821,0 -75.054,32.1719 -75.054,75.054 0,41.0924 32.1719,75.0539 75.054,75.0539 41.0785,0 73.2643,-33.9615 73.2643,-75.0539 0,-42.8821 -32.1858,-75.054 -73.2643,-75.054 z" style="fill:#ffffff;fill-rule:evenodd;stroke:#1b1918;stroke-width:0.216;stroke-linecap:butt;stroke-linejoin:miter;stroke-dasharray:none" id="path872"></path>
                  </svg>
